packages/ffe-icons/icons/filled/sm/data_loss_prevention.svg

<svg xmlns="http://www.w3.org/2000/svg" height="20" viewBox="0 -960 960 960" width="20"><path d="M444.212-586.001q25.942 0 43.864-18.135 17.923-18.135 17.923-44.076 0-25.942-18.135-43.864-18.135-17.923-44.076-17.923-25.942 0-43.864 18.135-17.923 18.135-17.923 44.076 0 25.942 18.135 43.864 18.135 17.923 44.076 17.923Zm.238 168q38.165 0 71.934-16.23 33.769-16.231 60.846-43.651-32.077-18.348-65.57-29.233-33.493-10.884-67.307-10.884-37.66 0-71.891 11.077-34.231 11.076-61.307 29.23 25.692 27.23 60.026 43.461 34.334 16.23 73.269 16.23Zm-.405 144q-122.814 0-206.429-84.302Q154.001-442.606 154.001-564q0-122.769 83.615-206.384 83.615-83.615 205.884-83.615 122.269 0 206.384 83.615 84.115 83.615 84.115 206.429 0 54.632-17.269 100.409-17.269 45.777-50.193 85.315L843.68-201.473q8.628 8.628 8.436 18.012-.193 9.385-8.5 18.077-8.692 8.692-18.769 8.692-10.077 0-18.704-8.564L629.385-341.078q-39.539 32.923-85.123 50-45.585 17.077-100.217 17.077Z"/></svg>

<svg xmlns="http://www.w3.org/2000/svg" height="20" viewBox="0 -960 960 960" width="20"><path d="M444.21-586q25.94 0 43.87-18.14Q506-622.27 506-648.21t-18.14-43.87Q469.73-710 443.79-710t-43.87 18.14Q382-673.73 382-647.79t18.14 43.87Q418.27-586 444.21-586Zm.24 168q38.16 0 71.93-16.23 33.77-16.23 60.85-43.65-32.08-18.35-65.57-29.23Q478.17-518 444.35-518q-37.66 0-71.89 11.08-34.23 11.07-61.3 29.23 25.69 27.23 60.02 43.46Q405.52-418 444.45-418Zm-.41 144q-122.81 0-206.42-84.3Q154-442.61 154-564q0-122.77 83.62-206.38Q321.23-854 443.5-854t206.38 83.62Q734-686.77 734-563.96q0 54.64-17.27 100.41-17.27 45.78-50.19 85.32l177.14 176.76q8.63 8.63 8.44 18.01-.2 9.38-8.5 18.08-8.7 8.69-18.77 8.69-10.08 0-18.71-8.57L629.38-341.08q-39.53 32.93-85.12 50Q498.68-274 444.04-274Z"/></svg>
